svg/blobs-icons/no-decorations/pinwheel.svg

<svg xmlns="http://www.w3.org/2000/svg" xmlns:xlink="http://www.w3.org/1999/xlink" preserveAspectRatio="xMidYMid" width="132" height="217" viewBox="0 0 132 217"><defs><style>.cls-3{fill:#142a3b}.cls-4{fill:#040404;opacity:.35}.cls-5{fill:#ff3a2f}.cls-6{fill:#fff;opacity:.4}.cls-8{fill:#ffe56d}.cls-9{fill:#fbb713;opacity:.5}.cls-10{fill:#0cb04a}.cls-12{fill:#fff}</style></defs><g id="group-68svg"><path d="M72.723 6.436S39.569 39.589 39.569 39.589 65.886 65.908 65.886 65.908s42.442-42.445 42.442-42.445S131.777.014 131.777.014 72.723 6.436 72.723 6.436z" id="path-1" class="cls-3" fill-rule="evenodd"/><path d="M72.723 6.436s-6.837 59.472-6.837 59.472S39.569 39.589 39.569 39.589 72.723 6.436 72.723 6.436z" id="path-2" class="cls-4" fill-rule="evenodd"/><path d="M125.357 72.741S92.205 39.588 92.205 39.588s-26.319 26.32-26.319 26.32 42.442 42.441 42.442 42.441 23.451 23.452 23.451 23.452-6.422-59.06-6.422-59.06z" id="path-3" class="cls-5" fill-rule="evenodd"/><path d="M125.357 72.741s-59.471-6.833-59.471-6.833 26.319-26.32 26.319-26.32 33.152 33.153 33.152 33.153z" id="path-4" class="cls-6" fill-rule="evenodd"/><path d="M65.886 216.891C63.661 216.891 61.856 215.085 61.856 212.86V63.605C61.856 61.381 63.661 59.575 65.886 59.575c2.226.0 4.03 1.806 4.03 4.02999999999999V212.86C69.916 215.085 68.112 216.891 65.886 216.891z" id="path-5" class="cls-3" fill-rule="evenodd"/><path d="M65.886 65.908s-42.444 42.441-42.444 42.441S-.007 131.801-.007 131.801 59.051 125.378 59.051 125.378 92.205 92.225 92.205 92.225 65.886 65.908 65.886 65.908z" id="path-6" class="cls-8" fill-rule="evenodd"/><path d="M59.051 125.378S65.886 65.908 65.886 65.908 92.205 92.225 92.205 92.225s-33.154 33.153-33.154 33.153z" id="path-7" class="cls-9" fill-rule="evenodd"/><path d="M23.442 23.463S-.007.011-.007.011s6.421 59.06 6.421 59.06S39.567 92.225 39.567 92.225 65.886 65.908 65.886 65.908 23.442 23.463 23.442 23.463z" id="path-8" class="cls-10" fill-rule="evenodd"/><path d="M6.414 59.071s59.472 6.837 59.472 6.837S39.567 92.225 39.567 92.225 6.414 59.071 6.414 59.071z" id="path-9" class="cls-6" fill-rule="evenodd"/><path d="M69.664 69.686c-2.087 2.089-5.47 2.089-7.558.0C60.017 67.598 60.017 64.216 62.106 62.127 64.194 60.038 67.577 60.038 69.664 62.127 71.753 64.216 71.753 67.598 69.664 69.686z" id="path-10" class="cls-12" fill-rule="evenodd"/></g></svg>

<svg xmlns="http://www.w3.org/2000/svg" xmlns:xlink="http://www.w3.org/1999/xlink" preserveAspectRatio="xMidYMid" width="132" height="217" viewBox="0 0 132 217">
  <defs>
    <style>

      .cls-3 {
        fill: #142a3b;
      }

      .cls-4 {
        fill: #040404;
        opacity: 0.35;
      }

      .cls-5 {
        fill: #ff3a2f;
      }

      .cls-6 {
        fill: #ffffff;
        opacity: 0.4;
      }

      .cls-8 {
        fill: #ffe56d;
      }

      .cls-9 {
        fill: #fbb713;
        opacity: 0.5;
      }

      .cls-10 {
        fill: #0cb04a;
      }

      .cls-12 {
        fill: #ffffff;
      }
    </style>
  </defs>
  <g id="group-68svg">
    <path d="M72.723,6.436 C72.723,6.436 39.569,39.589 39.569,39.589 C39.569,39.589 65.886,65.908 65.886,65.908 C65.886,65.908 108.328,23.463 108.328,23.463 C108.328,23.463 131.777,0.014 131.777,0.014 C131.777,0.014 72.723,6.436 72.723,6.436 Z" id="path-1" class="cls-3" fill-rule="evenodd"/>
    <path d="M72.723,6.436 C72.723,6.436 65.886,65.908 65.886,65.908 C65.886,65.908 39.569,39.589 39.569,39.589 C39.569,39.589 72.723,6.436 72.723,6.436 Z" id="path-2" class="cls-4" fill-rule="evenodd"/>
    <path d="M125.357,72.741 C125.357,72.741 92.205,39.588 92.205,39.588 C92.205,39.588 65.886,65.908 65.886,65.908 C65.886,65.908 108.328,108.349 108.328,108.349 C108.328,108.349 131.779,131.801 131.779,131.801 C131.779,131.801 125.357,72.741 125.357,72.741 Z" id="path-3" class="cls-5" fill-rule="evenodd"/>
    <path d="M125.357,72.741 C125.357,72.741 65.886,65.908 65.886,65.908 C65.886,65.908 92.205,39.588 92.205,39.588 C92.205,39.588 125.357,72.741 125.357,72.741 Z" id="path-4" class="cls-6" fill-rule="evenodd"/>
    <path d="M65.886,216.891 C63.661,216.891 61.856,215.085 61.856,212.860 C61.856,212.860 61.856,63.605 61.856,63.605 C61.856,61.381 63.661,59.575 65.886,59.575 C68.112,59.575 69.916,61.381 69.916,63.605 C69.916,63.605 69.916,212.860 69.916,212.860 C69.916,215.085 68.112,216.891 65.886,216.891 Z" id="path-5" class="cls-3" fill-rule="evenodd"/>
    <path d="M65.886,65.908 C65.886,65.908 23.442,108.349 23.442,108.349 C23.442,108.349 -0.007,131.801 -0.007,131.801 C-0.007,131.801 59.051,125.378 59.051,125.378 C59.051,125.378 92.205,92.225 92.205,92.225 C92.205,92.225 65.886,65.908 65.886,65.908 Z" id="path-6" class="cls-8" fill-rule="evenodd"/>
    <path d="M59.051,125.378 C59.051,125.378 65.886,65.908 65.886,65.908 C65.886,65.908 92.205,92.225 92.205,92.225 C92.205,92.225 59.051,125.378 59.051,125.378 Z" id="path-7" class="cls-9" fill-rule="evenodd"/>
    <path d="M23.442,23.463 C23.442,23.463 -0.007,0.011 -0.007,0.011 C-0.007,0.011 6.414,59.071 6.414,59.071 C6.414,59.071 39.567,92.225 39.567,92.225 C39.567,92.225 65.886,65.908 65.886,65.908 C65.886,65.908 23.442,23.463 23.442,23.463 Z" id="path-8" class="cls-10" fill-rule="evenodd"/>
    <path d="M6.414,59.071 C6.414,59.071 65.886,65.908 65.886,65.908 C65.886,65.908 39.567,92.225 39.567,92.225 C39.567,92.225 6.414,59.071 6.414,59.071 Z" id="path-9" class="cls-6" fill-rule="evenodd"/>
    <path d="M69.664,69.686 C67.577,71.775 64.194,71.775 62.106,69.686 C60.017,67.598 60.017,64.216 62.106,62.127 C64.194,60.038 67.577,60.038 69.664,62.127 C71.753,64.216 71.753,67.598 69.664,69.686 Z" id="path-10" class="cls-12" fill-rule="evenodd"/>
  </g>
</svg>
